X: 13
T:Bill Cheatham
R:reel
C:Old-Time, Bluegrass
Z:Transcribed to abc by Mary Lou Knack
M:C|
L:1/8
Q:1/2=100
K:A
"A"E2c2 c4| cBAc BAFE| "D"F2d2 d4| fgaf ecBA|!
"A"E2c2 c4| cBAc BABc| "D"dcde fgaf| "E"ecBc "A"A4 :|!
|:\
"A"ecea "D"fdfa| "E"gefg "A"a2eg| "A"agae "D"fgaf| "A"ecBA "E"B2cd|!
"A"ecea "D"fdfa| "E"gefg "A"a2eg| "A"agae "D"fgaf| "E"ecBc "A"A4 :|!
%%text 9/1/98
